;Sliced by ideaMaker 4.3.3.6560, 2024-12-03 12:15:41 UTC-0600
;Dimension: 300.000 300.000 300.000 0.400 0.400
;Plate Shape: 0
;Origin Center: 0
;Extruder Offset #1: 0.000 0.000
;Filament Diameter #1: 1.750
;Filament Diameter #2: 1.750
;Filament Compensation #1: 94.00
;Filament Compensation #2: 94.00
;Filament Density #1: 1240.00
;Filament Density #2: 1240.00
;Filament Type #1: PLA
;Filament Type #2: PLA
;Filament Name #1: [Raise3D] PLA 1.75mm
;Filament Name #2: [Raise3D] PLA 1.75mm
;Firmware: RepRapFirmware
;Bounding Box: 129.950 170.050 122.103 177.900 0.000 1.500
;Model Gap: 0.000
M221 T0 S94.00
M140 S55.00
M104 T0 S215.00
M109 T0 S215.00
T0
M190 S55.00
M572 D0 S0.09
M572 D1 S0.09
G21
G90
M82
M107
G28
G1 Z0 F500
G92 E0
G1 Z0.2 F400
G1 X60 Y-2 F800
G1 X140 Y-2 E12 F200
G1 Z5 E15 F200
G92 E0
G1 F9000.0
M117 Printing...
M1001
;TOTAL_NUM: 1
;PRINTING_TIME: 0
;REMAINING_TIME: 693
;LAYER:0
;Z:0.300
;HEIGHT:0.300
M106 S0
M106 P2 S0
;PRINTING: NON-OBJECT
;PRINTING_ID: -1
G1 F2400 E-0.5000
M204 T4500.00
M566 X600.00 Y600.00
G0 F9000 X130.912 Y124.531
G0 F300 Z0.300
M204 P2000.00
;TYPE:SKIRT
;WIDTH:0.700
G1 F1500 E0.0000
G1 F1200 X131.302 Y124.131 E0.0488
G1 X131.664 Y123.843 E0.0892
G1 X132.141 Y123.553 E0.1379
G1 X132.656 Y123.331 E0.1869
G1 X133.195 Y123.182 E0.2357
G1 X133.749 Y123.109 E0.2845
G1 X134.309 Y123.113 E0.3334
G1 X134.956 Y123.215 E0.3906
G1 X135.399 Y123.350 E0.4310
G1 X135.910 Y123.580 E0.4799
G1 X136.462 Y123.936 E0.5373
G1 X136.827 Y124.252 E0.5794
G1 X137.068 Y124.518 E0.6107
G1 X137.538 Y124.580 E0.6521
G1 X138.079 Y124.712 E0.7008
G1 X138.290 Y124.664 E0.7197
G1 X138.749 Y124.609 E0.7600
G1 X139.404 Y124.622 E0.8172
G1 X139.956 Y124.715 E0.8661
G1 X140.399 Y124.850 E0.9065
G1 X140.587 Y124.930 E0.9244
G1 X140.926 Y125.025 E0.9551
G1 X141.300 Y125.182 E0.9905
G1 X142.976 Y125.418 E1.1383
G1 X143.306 Y125.447 E1.1672
G1 X144.113 Y125.578 E1.2386
G1 X144.378 Y125.460 E1.2639
G1 X144.819 Y125.322 E1.3043
G1 X145.467 Y125.215 E1.3616
G1 X146.028 Y125.208 E1.4106
G1 X146.487 Y125.261 E1.4509
G1 X147.145 Y125.433 E1.5103
G1 X147.528 Y125.260 E1.5470
G1 X147.969 Y125.122 E1.5873
G1 X148.355 Y125.052 E1.6216
G1 X148.945 Y124.882 E1.6752
G1 X149.795 Y124.801 E1.7497
G1 X150.392 Y124.847 E1.8020
G1 X150.937 Y124.968 E1.8508
G1 X151.373 Y125.125 E1.8912
G1 X151.651 Y125.255 E1.9180
G1 X151.828 Y125.258 E1.9335
G1 X152.404 Y125.334 E1.9842
G1 X152.629 Y125.209 E2.0067
G1 X153.056 Y125.031 E2.0471
G1 X153.595 Y124.882 E2.0959
G1 X154.389 Y124.803 E2.1655
G1 X154.960 Y124.834 E2.2155
G1 X155.895 Y125.016 E2.2986
G1 X156.672 Y125.289 E2.3705
G1 X157.205 Y125.531 E2.4216
G1 X157.376 Y125.566 E2.4369
G1 X157.828 Y125.360 E2.4802
G1 X158.269 Y125.222 E2.5206
G1 X158.549 Y124.990 E2.5523
G1 X159.020 Y124.692 E2.6010
G1 X159.528 Y124.460 E2.6498
G1 X159.969 Y124.322 E2.6901
G1 X160.522 Y124.224 E2.7391
G1 X161.080 Y124.203 E2.7879
G1 X161.757 Y124.285 E2.8474
G1 X162.206 Y124.118 E2.8893
G1 X162.485 Y124.053 E2.9143
G1 X162.862 Y123.531 E2.9705
G1 X163.252 Y123.131 E3.0193
G1 X163.614 Y122.843 E3.0596
G1 X164.091 Y122.553 E3.1084
G1 X164.606 Y122.331 E3.1573
G1 X165.257 Y122.162 E3.2161
G1 X165.884 Y122.103 E3.2711
G1 X166.506 Y122.133 E3.3254
G1 X167.151 Y122.268 E3.3830
G1 X167.587 Y122.425 E3.4234
G1 X168.085 Y122.679 E3.4722
G1 X168.619 Y123.062 E3.5296
G1 X169.019 Y123.452 E3.5784
G1 X169.307 Y123.814 E3.6188
G1 X169.597 Y124.291 E3.6675
G1 X169.819 Y124.806 E3.7165
G1 X169.988 Y125.457 E3.7752
G1 X170.050 Y126.150 E3.8359
G1 X170.050 Y173.850 E8.0005
G1 X170.003 Y174.456 E8.0536
G1 X169.882 Y175.001 E8.1023
G1 X169.686 Y175.525 E8.1512
G1 X169.420 Y176.018 E8.2001
G1 X169.088 Y176.469 E8.2490
G1 X168.698 Y176.869 E8.2977
G1 X168.336 Y177.157 E8.3381
G1 X167.859 Y177.447 E8.3869
G1 X167.344 Y177.669 E8.4358
G1 X166.805 Y177.818 E8.4847
G1 X166.000 Y177.900 E8.5553
G1 X134.000 Y177.900 E11.3492
G1 X133.394 Y177.853 E11.4022
G1 X132.849 Y177.732 E11.4510
G1 X132.325 Y177.536 E11.4998
G1 X131.832 Y177.270 E11.5487
G1 X131.381 Y176.938 E11.5976
G1 X130.981 Y176.548 E11.6464
G1 X130.693 Y176.186 E11.6868
G1 X130.403 Y175.709 E11.7355
G1 X130.181 Y175.194 E11.7845
G1 X130.032 Y174.655 E11.8333
G1 X129.953 Y173.916 E11.8982
G1 X129.997 Y173.194 E11.9613
G1 X130.118 Y172.649 E12.0101
G1 X130.275 Y172.213 E12.0505
G1 X130.580 Y171.632 E12.1078
G1 X130.912 Y171.181 E12.1567
G1 X131.231 Y170.846 E12.1971
G1 X131.743 Y170.439 E12.2542
G1 X132.229 Y170.159 E12.3032
G1 X132.747 Y169.950 E12.3520
G1 X133.307 Y169.812 E12.4023
G1 X134.000 Y169.750 E12.4631
G1 X139.053 Y169.750 E12.9042
G1 X138.789 Y169.407 E12.9420
G1 X138.509 Y168.921 E12.9910
G1 X138.300 Y168.403 E13.0398
G1 X138.182 Y167.955 E13.0802
G1 X138.143 Y167.639 E13.1080
G1 X137.746 Y167.269 E13.1554
G1 X137.393 Y166.836 E13.2042
G1 X137.059 Y166.271 E13.2615
G1 X136.850 Y165.753 E13.3102
G1 X136.732 Y165.305 E13.3507
G1 X136.652 Y164.402 E13.4298
G1 X136.699 Y163.836 E13.4794
G1 X136.844 Y163.184 E13.5377
G1 X137.121 Y162.240 E13.6236
G1 X137.391 Y161.524 E13.6904
G1 X137.711 Y160.780 E13.7611
G1 X138.076 Y160.070 E13.8308
G1 X138.388 Y159.615 E13.8790
G1 X138.575 Y159.063 E13.9299
G1 X138.770 Y158.665 E13.9686
G1 X138.861 Y158.430 E13.9906
G1 X139.762 Y156.677 E14.1627
G1 X139.783 Y156.253 E14.1997
G1 X139.847 Y155.694 E14.2489
G1 X139.984 Y155.088 E14.3031
G1 X139.110 Y155.097 E14.3794
G1 X138.469 Y155.022 E14.4358
G1 X137.953 Y154.886 E14.4824
G1 X137.509 Y154.723 E14.5236
G1 X136.932 Y154.420 E14.5805
G1 X136.488 Y154.095 E14.6286
G1 X136.205 Y153.833 E14.6623
G1 X135.790 Y153.351 E14.7178
G1 X135.492 Y152.880 E14.7664
G1 X135.295 Y152.461 E14.8069
G1 X135.122 Y151.931 E14.8555
G1 X135.016 Y151.294 E14.9119
G1 X135.002 Y150.852 E14.9505
G1 X135.047 Y150.294 E14.9994
G1 X135.168 Y149.749 E15.0482
G1 X135.325 Y149.313 E15.0886
G1 X135.579 Y148.815 E15.1374
G1 X135.962 Y148.281 E15.1948
G1 X136.352 Y147.881 E15.2436
G1 X136.714 Y147.593 E15.2840
G1 X137.191 Y147.303 E15.3327
G1 X137.761 Y147.062 E15.3867
G1 X137.639 Y146.593 E15.4290
G1 X137.471 Y146.135 E15.4716
G1 X137.357 Y145.725 E15.5088
G1 X137.202 Y144.803 E15.5904
G1 X137.177 Y144.546 E15.6130
G1 X137.107 Y144.243 E15.6401
G1 X137.023 Y143.691 E15.6889
G1 X137.001 Y142.799 E15.7668
G1 X137.009 Y142.239 E15.8157
G1 X137.038 Y141.777 E15.8561
G1 X137.107 Y141.404 E15.8892
G1 X137.112 Y141.156 E15.9108
G1 X137.172 Y140.697 E15.9513
G1 X137.231 Y140.462 E15.9724
G1 X136.434 Y140.237 E16.0447
G1 X135.896 Y140.228 E16.0917
G1 X135.318 Y140.127 E16.1429
G1 X134.770 Y140.147 E16.1908
G1 X134.119 Y140.072 E16.2480
G1 X133.579 Y139.927 E16.2968
G1 X133.062 Y139.708 E16.3459
G1 X132.585 Y139.420 E16.3945
G1 X132.149 Y139.070 E16.4433
G1 X131.800 Y138.706 E16.4873
G1 X131.345 Y138.175 E16.5484
G1 X131.010 Y137.650 E16.6028
G1 X130.692 Y137.206 E16.6505
G1 X130.474 Y136.797 E16.6909
G1 X130.339 Y136.499 E16.7195
G1 X130.149 Y135.885 E16.7756
G1 X130.074 Y135.428 E16.8160
G1 X130.062 Y135.210 E16.8351
G1 X129.976 Y134.741 E16.8767
G1 X129.951 Y134.333 E16.9124
G1 X129.950 Y127.150 E17.5395
G1 X129.997 Y126.544 E17.5926
G1 X130.118 Y125.999 E17.6413
G1 X130.314 Y125.475 E17.6902
G1 X130.580 Y124.982 E17.7391
G1 X130.912 Y124.531 E17.7880
G1 F2400 E17.2880
G0 F9000 X131.419 Y125.014
G1 F1500 E17.7880
G1 F1200 X131.738 Y124.679 E17.8284
G1 X132.100 Y124.391 E17.8688
G1 X132.498 Y124.155 E17.9092
G1 X132.925 Y123.977 E17.9496
G1 X133.373 Y123.859 E17.9900
G1 X133.832 Y123.804 E18.0304
G1 X134.295 Y123.813 E18.0708
G1 X134.752 Y123.885 E18.1112
G1 X135.195 Y124.020 E18.1516
G1 X135.615 Y124.215 E18.1921
G1 X136.004 Y124.465 E18.2324
G1 X136.369 Y124.781 E18.2746
G1 X136.741 Y125.207 E18.3240
G1 X136.898 Y125.203 E18.3377
G1 X137.357 Y125.256 E18.3780
G1 X137.839 Y125.385 E18.4216
G1 X138.120 Y125.426 E18.4464
G1 X138.373 Y125.359 E18.4692
G1 X138.832 Y125.304 E18.5096
G1 X139.295 Y125.313 E18.5500
G1 X139.752 Y125.385 E18.5904
G1 X140.195 Y125.520 E18.6308
G1 X140.353 Y125.593 E18.6460
G1 X140.656 Y125.671 E18.6733
G1 X141.112 Y125.862 E18.7165
G1 X142.900 Y126.114 E18.8742
G1 X143.162 Y126.132 E18.8971
G1 X143.424 Y126.187 E18.9205
G1 X144.222 Y126.300 E18.9908
G1 X144.587 Y126.128 E19.0261
G1 X145.028 Y125.990 E19.0664
G1 X145.485 Y125.915 E19.1068
G1 X145.948 Y125.903 E19.1473
G1 X146.407 Y125.956 E19.1876
G1 X146.856 Y126.071 E19.2281
G1 X147.191 Y126.208 E19.2597
G1 X147.318 Y126.125 E19.2729
G1 X147.737 Y125.928 E19.3133
G1 X148.178 Y125.790 E19.3537
G1 X148.551 Y125.729 E19.3867
G1 X148.675 Y125.677 E19.3984
G1 X149.123 Y125.559 E19.4389
G1 X149.750 Y125.500 E19.4939
G1 X150.248 Y125.532 E19.5374
G1 X150.700 Y125.627 E19.5778
G1 X151.136 Y125.784 E19.6182
G1 X151.499 Y125.959 E19.6534
G1 X151.748 Y125.953 E19.6751
G1 X152.207 Y126.006 E19.7155
G1 X152.512 Y126.084 E19.7430
G1 X152.898 Y125.855 E19.7822
G1 X153.325 Y125.677 E19.8225
G1 X153.773 Y125.559 E19.8630
G1 X154.450 Y125.500 E19.9223
G1 X154.912 Y125.532 E19.9628
G1 X155.664 Y125.677 E20.0296
G1 X156.400 Y125.934 E20.0977
G1 X156.784 Y126.096 E20.1341
G1 X156.951 Y126.194 E20.1510
G1 X157.496 Y126.304 E20.1995
G1 X157.618 Y126.225 E20.2122
G1 X158.037 Y126.028 E20.2526
G1 X158.478 Y125.890 E20.2930
G1 X158.592 Y125.871 E20.3031
G1 X158.930 Y125.577 E20.3422
G1 X159.318 Y125.325 E20.3826
G1 X159.737 Y125.128 E20.4230
G1 X160.178 Y124.990 E20.4633
G1 X160.635 Y124.915 E20.5038
G1 X161.098 Y124.903 E20.5442
G1 X161.557 Y124.956 E20.5845
G1 X161.794 Y125.017 E20.6059
G1 X162.449 Y124.774 E20.6669
G1 X162.942 Y124.677 E20.7108
G1 X163.099 Y124.390 E20.7393
G1 X163.369 Y124.014 E20.7798
G1 X163.688 Y123.679 E20.8201
G1 X164.050 Y123.391 E20.8605
G1 X164.448 Y123.155 E20.9009
G1 X164.875 Y122.977 E20.9413
G1 X165.323 Y122.859 E20.9818
G1 X165.950 Y122.800 E21.0368
G1 X166.462 Y122.832 E21.0815
G1 X166.914 Y122.927 E21.1219
G1 X167.350 Y123.084 E21.1623
G1 X167.760 Y123.299 E21.2027
G1 X168.136 Y123.569 E21.2432
G1 X168.471 Y123.888 E21.2835
G1 X168.759 Y124.250 E21.3239
G1 X168.995 Y124.648 E21.3643
G1 X169.173 Y125.075 E21.4047
G1 X169.291 Y125.523 E21.4452
G1 X169.350 Y126.150 E21.5002
G1 X169.350 Y173.850 E25.6647
G1 X169.318 Y174.312 E25.7052
G1 X169.223 Y174.764 E25.7455
G1 X169.066 Y175.200 E25.7860
G1 X168.851 Y175.610 E25.8264
G1 X168.581 Y175.986 E25.8668
G1 X168.262 Y176.321 E25.9072
G1 X167.900 Y176.609 E25.9476
G1 X167.502 Y176.845 E25.9880
G1 X167.075 Y177.023 E26.0284
G1 X166.627 Y177.141 E26.0688
G1 X166.000 Y177.200 E26.1238
G1 X134.000 Y177.200 E28.9176
G1 X133.538 Y177.168 E28.9581
G1 X133.086 Y177.073 E28.9984
G1 X132.650 Y176.916 E29.0389
G1 X132.240 Y176.701 E29.0793
G1 X131.864 Y176.431 E29.1197
G1 X131.529 Y176.112 E29.1601
G1 X131.241 Y175.750 E29.2005
G1 X131.005 Y175.352 E29.2409
G1 X130.827 Y174.925 E29.2812
G1 X130.709 Y174.477 E29.3217
G1 X130.650 Y173.850 E29.3767
G1 X130.682 Y173.338 E29.4215
G1 X130.777 Y172.886 E29.4618
G1 X130.934 Y172.450 E29.5023
G1 X131.149 Y172.040 E29.5427
G1 X131.419 Y171.664 E29.5831
G1 X131.738 Y171.329 E29.6235
G1 X132.100 Y171.041 E29.6639
G1 X132.498 Y170.805 E29.7043
G1 X132.925 Y170.627 E29.7447
G1 X133.373 Y170.509 E29.7851
G1 X134.000 Y170.450 E29.8401
G1 X140.536 Y170.450 E30.4107
G1 X140.410 Y170.277 E30.4294
G1 X140.187 Y169.856 E30.4710
G1 X140.014 Y169.731 E30.4896
G1 X139.679 Y169.412 E30.5300
G1 X139.391 Y169.050 E30.5704
G1 X139.155 Y168.652 E30.6108
G1 X138.977 Y168.225 E30.6512
G1 X138.859 Y167.777 E30.6917
G1 X138.810 Y167.258 E30.7372
G1 X138.564 Y167.081 E30.7636
G1 X138.229 Y166.762 E30.8040
G1 X137.941 Y166.400 E30.8444
G1 X137.705 Y166.002 E30.8848
G1 X137.527 Y165.575 E30.9252
G1 X137.409 Y165.127 E30.9656
G1 X137.350 Y164.450 E31.0250
G1 X137.382 Y163.988 E31.0654
G1 X137.527 Y163.336 E31.1237
G1 X137.747 Y162.630 E31.1883
G1 X137.777 Y162.486 E31.2011
G1 X138.034 Y161.800 E31.2651
G1 X138.334 Y161.100 E31.3316
G1 X138.699 Y160.390 E31.4013
G1 X139.043 Y159.900 E31.4535
G1 X139.077 Y159.736 E31.4682
G1 X139.234 Y159.300 E31.5086
G1 X139.416 Y158.939 E31.5439
G1 X139.484 Y158.750 E31.5615
G1 X140.453 Y156.864 E31.7466
G1 X140.482 Y156.288 E31.7969
G1 X140.510 Y156.154 E31.8089
G1 X140.532 Y155.838 E31.8365
G1 X140.627 Y155.386 E31.8769
G1 X140.727 Y155.036 E31.9087
G1 X140.934 Y154.450 E31.9629
G1 X141.067 Y154.186 E31.9887
G1 X140.672 Y154.310 E32.0249
G1 X140.215 Y154.385 E32.0653
G1 X139.102 Y154.397 E32.1625
G1 X138.643 Y154.344 E32.2028
G1 X138.194 Y154.229 E32.2433
G1 X137.750 Y154.066 E32.2846
G1 X137.340 Y153.851 E32.3250
G1 X136.964 Y153.581 E32.3654
G1 X136.681 Y153.319 E32.3991
G1 X136.377 Y152.970 E32.4395
G1 X136.125 Y152.582 E32.4799
G1 X135.928 Y152.163 E32.5203
G1 X135.790 Y151.722 E32.5607
G1 X135.715 Y151.265 E32.6011
G1 X135.700 Y150.900 E32.6330
G1 X135.732 Y150.438 E32.6734
G1 X135.827 Y149.986 E32.7137
G1 X135.984 Y149.550 E32.7542
G1 X136.199 Y149.140 E32.7946
G1 X136.469 Y148.764 E32.8350
G1 X136.788 Y148.429 E32.8754
G1 X137.150 Y148.141 E32.9158
G1 X137.548 Y147.905 E32.9562
G1 X137.975 Y147.727 E32.9966
G1 X138.423 Y147.609 E33.0370
G1 X138.701 Y147.580 E33.0614
G1 X138.536 Y147.171 E33.1000
G1 X138.414 Y146.810 E33.1332
G1 X138.312 Y146.400 E33.1701
G1 X138.232 Y146.148 E33.1932
G1 X138.143 Y145.940 E33.2129
G1 X138.047 Y145.609 E33.2430
G1 X137.892 Y144.687 E33.3247
G1 X137.870 Y144.436 E33.3467
G1 X137.798 Y144.130 E33.3741
G1 X137.723 Y143.673 E33.4145
G1 X137.701 Y142.808 E33.4901
G1 X137.708 Y142.283 E33.5359
G1 X137.737 Y141.821 E33.5763
G1 X137.808 Y141.469 E33.6077
G1 X137.806 Y141.247 E33.6271
G1 X137.866 Y140.788 E33.6675
G1 X138.005 Y140.304 E33.7115
G1 X137.967 Y140.166 E33.7240
G1 X137.925 Y139.846 E33.7521
G1 X137.443 Y139.794 E33.7945
G1 X136.994 Y139.679 E33.8349
G1 X136.542 Y139.537 E33.8763
G1 X136.005 Y139.537 E33.9232
G1 X135.548 Y139.465 E33.9636
G1 X135.367 Y139.410 E33.9801
G1 X135.215 Y139.435 E33.9935
G1 X134.752 Y139.447 E34.0340
G1 X134.293 Y139.394 E34.0743
G1 X133.844 Y139.279 E34.1148
G1 X133.416 Y139.104 E34.1551
G1 X133.017 Y138.870 E34.1955
G1 X132.653 Y138.584 E34.2360
G1 X132.332 Y138.251 E34.2763
G1 X131.877 Y137.720 E34.3374
G1 X131.591 Y137.260 E34.3847
G1 X131.310 Y136.877 E34.4261
G1 X131.092 Y136.468 E34.4666
G1 X130.978 Y136.213 E34.4910
G1 X130.840 Y135.772 E34.5313
G1 X130.765 Y135.315 E34.5718
G1 X130.760 Y135.136 E34.5874
G1 X130.665 Y134.615 E34.6336
G1 X130.650 Y134.300 E34.6612
G1 X130.650 Y127.150 E35.2854
G1 X130.682 Y126.688 E35.3259
G1 X130.777 Y126.236 E35.3662
G1 X130.934 Y125.800 E35.4067
G1 X131.149 Y125.390 E35.4471
G1 X131.419 Y125.014 E35.4875
;PRINTING: Mona_Lisa_2.stl
;PRINTING_ID: 0
G1 F2400 E34.9875
G0 F9000 X134.700 Y129.071
M204 P1000.00
;TYPE:WALL-OUTER
;WIDTH:0.246
G1 F1500 E35.4875
G1 F1200 X134.742 Y129.034 E35.4892
G1 X134.720 Y129.062 E35.4903
G1 X134.700 Y129.071 E35.4910
G1 F2400 E34.9910
G0 F9000 X141.554 Y139.554
;TYPE:WALL-OUTER
;WIDTH:0.302
G1 F1500 E35.4910
G1 F1200 X141.685 Y139.510 E35.4962
G1 X141.817 Y139.467 E35.5014
;WIDTH:0.236
G1 X141.850 Y139.450 E35.5025
G1 X141.942 Y139.450 E35.5052
G1 X141.953 Y139.440 E35.5056
G1 F2400 E35.0056
G0 F9000 X142.174 Y139.674
;WIDTH:0.178
G1 F1500 E35.5056
G1 F1200 X142.304 Y139.545 E35.5097
G1 F2400 E35.0097
G0 F9000 X142.476 Y141.473
G0 X141.684 Y141.724
;TYPE:WALL-OUTER
;WIDTH:0.274
G1 F1500 E35.5097
G1 F1200 X142.085 Y141.875 E35.5244
G1 F2400 E35.0244
G0 F9000 X142.234 Y142.078
;WIDTH:0.250
G1 F1500 E35.5244
G1 F1200 X142.221 Y142.085 E35.5248
;WIDTH:0.347
G1 X142.083 Y142.156 E35.5315
G1 X142.067 Y142.186 E35.5330
;WIDTH:0.426
G1 X142.037 Y142.241 E35.5363
;WIDTH:0.864
G1 X141.883 Y142.478 E35.5668
G1 X141.879 Y142.516 E35.5709
G1 X141.905 Y142.508 E35.5738
G1 X141.932 Y142.501 E35.5768
G1 X141.959 Y142.494 E35.5798
;WIDTH:0.771
G1 X141.986 Y142.487 E35.5825
G1 X142.013 Y142.480 E35.5852
;WIDTH:0.676
G1 X142.039 Y142.473 E35.5875
G1 X142.066 Y142.466 E35.5898
;WIDTH:0.581
G1 X142.093 Y142.459 E35.5919
G1 X142.120 Y142.452 E35.5939
;WIDTH:0.486
G1 X142.147 Y142.445 E35.5956
G1 X142.181 Y142.430 E35.5978
;WIDTH:0.395
G1 X142.215 Y142.415 E35.5996
G1 X142.250 Y142.401 E35.6015
;WIDTH:0.304
