;Sliced by ideaMaker 4.3.3.6560, 2024-12-03 12:32:53 UTC-0600
;Dimension: 300.000 300.000 300.000 0.400 0.400
;Plate Shape: 0
;Origin Center: 0
;Extruder Offset #1: 0.000 0.000
;Filament Diameter #1: 1.750
;Filament Diameter #2: 1.750
;Filament Compensation #1: 94.00
;Filament Compensation #2: 94.00
;Filament Density #1: 1240.00
;Filament Density #2: 1240.00
;Filament Type #1: PLA
;Filament Type #2: PLA
;Filament Name #1: [Raise3D] PLA 1.75mm
;Filament Name #2: [Raise3D] PLA 1.75mm
;Firmware: RepRapFirmware
;Bounding Box: 129.949 170.057 122.107 177.905 0.000 0.900
;Model Gap: 0.000
M221 T0 S94.00
M140 S55.00
M104 T0 S215.00
M109 T0 S215.00
T0
M190 S55.00
M572 D0 S0.09
M572 D1 S0.09
G21
G90
M82
M107
G28
G1 Z0 F500
G92 E0
G1 Z0.2 F400
G1 X60 Y-2 F800
G1 X140 Y-2 E12 F200
G1 Z5 E15 F200
G92 E0
G1 F9000.0
M117 Printing...
M1001
;TOTAL_NUM: 1
;PRINTING_TIME: 0
;REMAINING_TIME: 597
;LAYER:0
;Z:0.300
;HEIGHT:0.300
M106 S0
M106 P2 S0
;PRINTING: NON-OBJECT
;PRINTING_ID: -1
G1 F2400 E-0.5000
M204 T4500.00
M566 X600.00 Y600.00
G0 F9000 X130.919 Y123.536
G0 F300 Z0.300
M204 P2000.00
;TYPE:SKIRT
;WIDTH:0.700
G1 F1500 E0.0000
G1 F1200 X131.309 Y123.136 E0.0488
G1 X131.671 Y122.848 E0.0892
G1 X132.148 Y122.558 E0.1379
G1 X132.663 Y122.336 E0.1869
G1 X133.202 Y122.187 E0.2357
G1 X133.941 Y122.108 E0.3006
G1 X166.055 Y122.107 E3.1044
G1 X166.613 Y122.152 E3.1533
G1 X167.065 Y122.247 E3.1936
G1 X167.682 Y122.469 E3.2508
G1 X168.175 Y122.735 E3.2997
G1 X168.551 Y123.005 E3.3402
G1 X168.961 Y123.386 E3.3890
G1 X169.368 Y123.898 E3.4461
G1 X169.604 Y124.296 E3.4865
G1 X169.826 Y124.811 E3.5355
G1 X169.995 Y125.462 E3.5942
G1 X170.054 Y126.089 E3.6492
G1 X170.057 Y173.855 E7.8195
G1 X170.010 Y174.461 E7.8726
G1 X169.889 Y175.006 E7.9213
G1 X169.693 Y175.530 E7.9702
G1 X169.427 Y176.023 E8.0191
G1 X169.095 Y176.474 E8.0680
G1 X168.705 Y176.874 E8.1168
G1 X168.343 Y177.162 E8.1572
G1 X167.866 Y177.452 E8.2059
G1 X167.351 Y177.674 E8.2549
G1 X166.812 Y177.823 E8.3037
G1 X166.007 Y177.905 E8.3743
G1 X134.007 Y177.905 E11.1682
G1 X133.401 Y177.858 E11.2212
G1 X132.856 Y177.737 E11.2700
G1 X132.332 Y177.541 E11.3188
G1 X131.839 Y177.275 E11.3677
G1 X131.388 Y176.943 E11.4166
G1 X130.988 Y176.553 E11.4654
G1 X130.700 Y176.191 E11.5058
G1 X130.410 Y175.714 E11.5545
G1 X130.188 Y175.199 E11.6035
G1 X130.039 Y174.660 E11.6523
G1 X129.957 Y173.855 E11.7230
G1 X129.957 Y165.555 E12.4476
G1 X129.991 Y165.045 E12.4923
G1 X130.480 Y161.948 E12.7660
G1 X130.459 Y161.548 E12.8010
G1 X130.475 Y161.086 E12.8413
G1 X130.503 Y160.885 E12.8590
G1 X130.464 Y160.537 E12.8896
G1 X130.467 Y160.075 E12.9300
G1 X130.540 Y159.522 E12.9787
G1 X130.690 Y158.982 E13.0276
G1 X130.912 Y158.469 E13.0764
G1 X131.299 Y157.855 E13.1398
G1 X131.098 Y157.451 E13.1792
G1 X130.979 Y157.119 E13.2099
G1 X130.666 Y156.690 E13.2563
G1 X130.282 Y155.990 E13.3260
G1 X130.095 Y155.461 E13.3750
G1 X129.984 Y154.914 E13.4237
G1 X129.949 Y154.453 E13.4641
G1 X129.977 Y153.894 E13.5130
G1 X130.061 Y153.460 E13.5516
G1 X129.972 Y152.921 E13.5993
G1 X129.971 Y152.303 E13.6532
G1 X130.022 Y151.891 E13.6895
G1 X130.009 Y151.476 E13.7257
G1 X130.054 Y150.918 E13.7746
G1 X130.169 Y150.393 E13.8215
G1 X130.479 Y149.454 E13.9078
G1 X130.621 Y149.130 E13.9387
G1 X130.836 Y148.720 E13.9791
G1 X131.070 Y148.382 E14.0150
G1 X130.883 Y148.179 E14.0391
G1 X130.609 Y147.806 E14.0795
G1 X130.298 Y147.228 E14.1369
G1 X130.109 Y146.701 E14.1857
G1 X130.010 Y146.249 E14.2261
G1 X129.957 Y145.605 E14.2825
G1 X129.959 Y140.563 E14.7228
G1 X130.004 Y140.005 E14.7716
G1 X130.099 Y139.553 E14.8120
G1 X130.234 Y139.158 E14.8484
G1 X130.159 Y138.962 E14.8667
G1 X130.041 Y138.514 E14.9072
G1 X129.959 Y137.744 E14.9748
G1 X129.957 Y136.907 E15.0479
G1 X129.993 Y136.406 E15.0917
G1 X129.949 Y135.726 E15.1512
G1 X129.957 Y126.146 E15.9876
G1 X130.004 Y125.549 E16.0399
G1 X130.125 Y125.004 E16.0886
G1 X130.321 Y124.480 E16.1375
G1 X130.587 Y123.987 E16.1864
G1 X130.919 Y123.536 E16.2353
G1 F2400 E15.7353
G0 F9000 X131.426 Y124.019
G1 F1500 E16.2353
G1 F1200 X131.745 Y123.684 E16.2757
G1 X132.107 Y123.396 E16.3161
G1 X132.505 Y123.160 E16.3565
G1 X132.932 Y122.982 E16.3968
G1 X133.380 Y122.864 E16.4373
G1 X134.007 Y122.805 E16.4923
G1 X148.723 Y122.805 E17.7771
G1 X166.007 Y122.805 E19.2861
G1 X166.469 Y122.837 E19.3266
G1 X166.921 Y122.932 E19.3669
G1 X167.357 Y123.089 E19.4073
G1 X167.767 Y123.304 E19.4478
G1 X168.143 Y123.574 E19.4882
G1 X168.478 Y123.893 E19.5286
G1 X168.766 Y124.255 E19.5690
G1 X169.002 Y124.653 E19.6094
G1 X169.180 Y125.080 E19.6497
G1 X169.298 Y125.528 E19.6902
G1 X169.357 Y126.155 E19.7452
G1 X169.357 Y173.855 E23.9098
G1 X169.325 Y174.317 E23.9502
G1 X169.230 Y174.769 E23.9905
G1 X169.073 Y175.205 E24.0310
G1 X168.858 Y175.615 E24.0714
G1 X168.588 Y175.991 E24.1118
G1 X168.269 Y176.326 E24.1522
G1 X167.907 Y176.614 E24.1926
G1 X167.509 Y176.850 E24.2330
G1 X167.082 Y177.028 E24.2734
G1 X166.634 Y177.146 E24.3138
G1 X166.007 Y177.205 E24.3688
G1 X134.007 Y177.205 E27.1627
G1 X133.545 Y177.173 E27.2031
G1 X133.093 Y177.078 E27.2434
G1 X132.657 Y176.921 E27.2839
G1 X132.247 Y176.706 E27.3243
G1 X131.871 Y176.436 E27.3647
G1 X131.536 Y176.117 E27.4051
G1 X131.248 Y175.755 E27.4455
G1 X131.012 Y175.357 E27.4859
G1 X130.834 Y174.930 E27.5263
G1 X130.716 Y174.482 E27.5667
G1 X130.657 Y173.855 E27.6217
G1 X130.657 Y165.555 E28.3464
G1 X130.689 Y165.093 E28.3868
G1 X130.777 Y164.610 E28.4297
G1 X130.789 Y164.443 E28.4443
G1 X130.927 Y163.660 E28.5137
G1 X130.939 Y163.493 E28.5283
G1 X131.183 Y161.983 E28.6619
G1 X131.159 Y161.572 E28.6978
G1 X131.175 Y161.110 E28.7382
G1 X131.211 Y160.899 E28.7568
G1 X131.164 Y160.542 E28.7883
G1 X131.167 Y160.080 E28.8286
G1 X131.233 Y159.622 E28.8690
G1 X131.362 Y159.177 E28.9095
G1 X131.551 Y158.755 E28.9498
G1 X131.806 Y158.345 E28.9920
G1 X132.155 Y157.882 E29.0426
G1 X131.931 Y157.555 E29.0772
G1 X131.725 Y157.140 E29.1177
G1 X131.597 Y156.762 E29.1525
G1 X131.447 Y156.591 E29.1724
G1 X131.276 Y156.347 E29.1984
G1 X130.939 Y155.748 E29.2584
G1 X130.779 Y155.314 E29.2988
G1 X130.682 Y154.861 E29.3392
G1 X130.647 Y154.400 E29.3796
G1 X130.676 Y153.938 E29.4200
G1 X130.775 Y153.467 E29.4620
G1 X130.672 Y152.920 E29.5106
G1 X130.671 Y152.302 E29.5646
G1 X130.723 Y151.926 E29.5977
G1 X130.707 Y151.524 E29.6329
G1 X130.739 Y151.062 E29.6733
G1 X130.834 Y150.610 E29.7136
G1 X131.121 Y149.732 E29.7943
G1 X131.241 Y149.455 E29.8206
G1 X131.456 Y149.045 E29.8610
G1 X131.726 Y148.669 E29.9014
G1 X132.059 Y148.323 E29.9434
G1 X131.769 Y148.098 E29.9754
G1 X131.447 Y147.765 E30.0159
G1 X131.173 Y147.392 E30.0563
G1 X130.954 Y146.984 E30.0967
G1 X130.793 Y146.551 E30.1370
G1 X130.694 Y146.099 E30.1774
G1 X130.657 Y145.605 E30.2207
G1 X130.657 Y140.611 E30.6567
G1 X130.689 Y140.149 E30.6971
G1 X130.784 Y139.697 E30.7375
G1 X130.941 Y139.261 E30.7779
G1 X130.993 Y139.161 E30.7878
G1 X130.836 Y138.784 E30.8234
G1 X130.718 Y138.336 E30.8639
G1 X130.659 Y137.742 E30.9160
G1 X130.657 Y136.905 E30.9891
G1 X130.695 Y136.413 E31.0321
G1 X130.649 Y135.726 E31.0922
G1 X130.651 Y126.635 E31.8860
G1 X130.657 Y126.155 E31.9279
G1 X130.689 Y125.693 E31.9683
G1 X130.784 Y125.241 E32.0086
G1 X130.941 Y124.805 E32.0491
G1 X131.156 Y124.395 E32.0895
G1 X131.426 Y124.019 E32.1299
;PRINTING: simplified_model.stl
;PRINTING_ID: 0
G1 F2400 E31.6299
G0 F9000 X140.639 Y133.685
M204 P1000.00
;TYPE:WALL-OUTER
;WIDTH:0.700
G1 F1500 E32.1299
G1 F1200 X141.368 Y133.199 E32.2064
G1 X141.699 Y133.695 E32.2585
G1 X141.519 Y134.105 E32.2976
G1 X140.767 Y134.105 E32.3632
G1 X140.639 Y133.685 E32.4016
G0 F3600 X140.805 Y133.575
G1 F2400 E31.9016
G0 F9000 X141.370 Y134.784
G0 X141.598 Y135.096
;TYPE:WALL-OUTER
;WIDTH:0.207
G1 F1500 E32.4016
G1 F1200 X141.464 Y135.109 E32.4050
;WIDTH:0.290
G1 X141.266 Y135.264 E32.4141
G0 F9000 X140.867 Y136.237
G0 X139.999 Y136.213
G0 X139.991 Y136.113
;TYPE:WALL-OUTER
;WIDTH:0.700
G1 F1200 X140.879 Y136.138 E32.4917
G1 X140.826 Y138.021 E32.6562
G1 X139.630 Y137.988 E32.7606
G1 X139.643 Y137.399 E32.8121
G1 X139.705 Y137.400 E32.8175
G1 X139.711 Y137.032 E32.8496
G1 X139.761 Y136.982 E32.8558
G1 X139.761 Y136.937 E32.8597
G1 X140.008 Y136.647 E32.8930
G1 X139.841 Y136.504 E32.9122
G1 X139.991 Y136.113 E32.9487
G0 F3600 X140.191 Y136.118
G1 F2400 E32.4487
G0 F9000 X140.189 Y136.218
G0 X140.401 Y136.724
M204 P2000.00
;TYPE:SOLID-FILL
;WIDTH:0.400
G1 F1500 E32.9487
G1 F1200 X140.324 Y136.930 E32.9563
G1 X140.345 Y137.517 E32.9812
G1 X140.052 Y137.506 E32.9958
G1 F2400 E32.4958
G0 F9000 X143.232 Y139.383
M204 P1000.00
;TYPE:WALL-OUTER
;WIDTH:0.250
G1 F1500 E32.9958
G1 F1200 X143.228 Y139.405 E32.9965
G1 F2400 E32.4965
G0 F9000 X143.205 Y139.706
;WIDTH:0.292
G1 F1500 E32.9965
G1 F1200 X143.406 Y140.106 E33.0128
G1 X143.453 Y140.169 E33.0157
G1 X143.471 Y140.212 E33.0174
G1 X143.488 Y140.248 E33.0188
G1 X143.496 Y140.265 E33.0195
G1 X143.547 Y140.322 E33.0223
G1 X143.568 Y140.362 E33.0239
G1 X143.590 Y140.396 E33.0254
G1 X143.600 Y140.411 E33.0261
G1 X143.644 Y140.473 E33.0288
G1 X143.692 Y140.570 E33.0328
;WIDTH:0.349
G1 X143.734 Y140.628 E33.0359
G1 X143.783 Y140.729 E33.0408
G1 X143.823 Y140.784 E33.0437
G1 X143.874 Y140.886 E33.0487
G1 X143.895 Y140.918 E33.0504
G1 X143.914 Y140.939 E33.0516
G1 X143.944 Y140.989 E33.0541
G1 X143.975 Y141.036 E33.0566
G1 X143.983 Y141.047 E33.0572
;WIDTH:0.429
G1 X144.047 Y141.147 E33.0635
G1 X144.051 Y141.160 E33.0643
G1 X144.105 Y141.256 E33.0702
G1 X144.140 Y141.301 E33.0732
G1 X144.183 Y141.386 E33.0783
G1 X144.199 Y141.412 E33.0799
G1 X144.223 Y141.453 E33.0825
G1 X144.272 Y141.513 E33.0866
G1 X144.279 Y141.548 E33.0885
G1 X144.280 Y141.576 E33.0900
G1 X144.313 Y141.845 E33.1045
;WIDTH:0.360
G1 X144.347 Y142.114 E33.1167
G1 F2400 E32.6167
G0 F9000 X144.351 Y142.214
G0 X144.038 Y141.861
G0 X144.323 Y141.529
G0 X143.157 Y139.905
G0 X144.182 Y138.613
;WIDTH:0.507
G1 F1500 E33.1167
G1 F1200 X144.203 Y138.516 E33.1230
G1 X144.349 Y137.882 E33.1641
G1 F2400 E32.6641
G0 F9000 X143.157 Y139.905
G0 X144.323 Y141.529
G0 X144.038 Y141.861
G0 X144.450 Y142.361
G0 X144.542 Y142.328
G0 X144.429 Y142.382
;WIDTH:0.294
G1 F1500 E33.1641
G1 F1200 X144.492 Y142.703 E33.1761
;WIDTH:0.350
G1 X144.503 Y142.742 E33.1779
G1 X144.507 Y142.755 E33.1785
G1 X144.511 Y142.805 E33.1807
G1 X144.518 Y142.842 E33.1823
G1 X144.536 Y142.876 E33.1840
G1 X144.524 Y142.880 E33.1846
G1 X144.490 Y142.931 E33.1872
G1 X144.482 Y143.005 E33.1905
G1 X144.482 Y143.083 E33.1939
G1 X144.457 Y143.205 E33.1993
;WIDTH:0.299
G1 X144.432 Y143.332 E33.2041
G1 X144.407 Y143.455 E33.2088
G1 X144.403 Y143.551 E33.2124
G1 X144.387 Y143.605 E33.2145
G1 X144.377 Y143.655 E33.2164
G1 X144.357 Y143.717 E33.2188
;WIDTH:0.248
G1 X144.353 Y143.801 E33.2214
G1 X144.332 Y143.905 E33.2247
G1 X144.332 Y144.005 E33.2278
G1 X144.327 Y144.051 E33.2292
G1 X144.317 Y144.065 E33.2298
G1 X144.296 Y144.094 E33.2309
G1 X144.286 Y144.108 E33.2314
G1 X144.282 Y144.155 E33.2329
G1 X144.281 Y144.305 E33.2375
;WIDTH:0.175
G1 X144.281 Y144.331 E33.2381
G1 X144.281 Y144.418 E33.2400
;WIDTH:0.234
G1 X144.269 Y144.467 E33.2415
G1 X144.251 Y144.510 E33.2428
G1 X144.230 Y144.556 E33.2443
G1 X144.224 Y144.572 E33.2448
;WIDTH:0.175
G1 X144.207 Y144.655 E33.2466
G1 X144.207 Y144.763 E33.2490
G1 X144.195 Y144.793 E33.2497
G1 X144.063 Y145.107 E33.2571
G1 F2400 E32.7571
G0 F9000 X143.505 Y143.215
;WIDTH:0.600
G1 F1500 E33.2571
G1 F1200 X143.489 Y143.249 E33.2600
;WIDTH:0.690
G1 X143.474 Y143.284 E33.2632
G1 X143.458 Y143.319 E33.2665
;WIDTH:0.780
G1 X143.443 Y143.353 E33.2702
G1 X143.427 Y143.388 E33.2739
;WIDTH:0.862
G1 X143.412 Y143.423 E33.2780
G1 X143.397 Y143.458 E33.2821
G1 X143.385 Y143.476 E33.2844
G1 X143.388 Y143.508 E33.2879
;WIDTH:0.804
G1 X143.359 Y143.555 E33.2934
;WIDTH:0.718
G1 X143.303 Y143.651 E33.3034
G1 X143.263 Y143.711 E33.3098
G1 X143.200 Y143.798 E33.3194
;WIDTH:0.802
G1 X143.161 Y143.859 E33.3267
G1 X143.139 Y143.896 E33.3310
;WIDTH:0.887
G1 X143.117 Y143.934 E33.3358
G1 X143.095 Y143.971 E33.3406
;WIDTH:0.972
G1 X143.073 Y144.009 E33.3459
G1 X143.051 Y144.047 E33.3513
;WIDTH:1.055
G1 X143.024 Y144.074 E33.3563
G1 X142.997 Y144.101 E33.3613
;WIDTH:1.129
G1 X142.971 Y144.129 E33.3667
G1 X142.873 Y144.138 E33.3805
G1 X142.776 Y144.147 E33.3943
G1 X142.729 Y144.141 E33.4009
G1 F2400 E32.9009
G0 F9000 X143.388 Y143.508
;WIDTH:0.862
G1 F1500 E33.4009
G1 F1200 X143.416 Y143.522 E33.4043
G1 X143.445 Y143.536 E33.4078
;WIDTH:0.778
G1 X143.474 Y143.551 E33.4109
G1 X143.503 Y143.565 E33.4141
;WIDTH:0.693
G1 X143.532 Y143.580 E33.4169
G1 X143.557 Y143.601 E33.4197
;WIDTH:0.607
G1 X143.567 Y143.610 E33.4207
G1 X143.595 Y143.619 E33.4229
;WIDTH:0.542
G1 X143.623 Y143.628 E33.4249
G1 X143.651 Y143.637 E33.4269
;WIDTH:0.451
G1 X143.679 Y143.646 E33.4286
G1 X143.707 Y143.655 E33.4302
;WIDTH:0.360
G1 X143.727 Y143.659 E33.4311
G1 X143.748 Y143.663 E33.4321
;WIDTH:0.305
G1 X143.761 Y143.666 E33.4326
G1 F2400 E32.9326
G0 F9000 X142.971 Y144.128
;WIDTH:1.055
G1 F1500 E33.4326
G1 F1200 X142.989 Y144.147 E33.4361
G1 X143.007 Y144.166 E33.4395
;WIDTH:0.978
G1 X143.034 Y144.188 E33.4437
G1 X143.062 Y144.210 E33.4481
;WIDTH:0.890
G1 X143.089 Y144.232 E33.4520
G1 X143.117 Y144.254 E33.4559
;WIDTH:0.801
G1 X143.145 Y144.276 E33.4595
G1 X143.172 Y144.298 E33.4629
;WIDTH:0.713
G1 X143.200 Y144.320 E33.4661
G1 X143.228 Y144.342 E33.4693
;WIDTH:0.624
G1 X143.237 Y144.363 E33.4711
G1 X143.247 Y144.384 E33.4729
;WIDTH:0.541
G1 X143.257 Y144.405 E33.4744
G1 X143.272 Y144.435 E33.4767
;WIDTH:0.454
G1 X143.287 Y144.465 E33.4786
G1 X143.302 Y144.495 E33.4805
;WIDTH:0.363
G1 X143.317 Y144.525 E33.4820
G1 X143.332 Y144.555 E33.4835
;WIDTH:0.272
G1 X143.347 Y144.586 E33.4847
G1 X143.394 Y144.648 E33.4873
G1 X143.407 Y144.661 E33.4880
G1 X143.456 Y144.723 E33.4906
G1 X143.500 Y144.736 E33.4922
G1 X143.544 Y144.749 E33.4938
G1 F2400 E32.9938
G0 F9000 X143.649 Y144.321
;WIDTH:0.175
G1 F1500 E33.4938
G1 F1200 X143.567 Y144.383 E33.4960
G1 X142.169 Y144.317 E33.5266
G1 F2400 E33.0266
G0 F9000 X141.979 Y144.680
;WIDTH:0.352
G1 F1500 E33.5266
G1 F1200 X142.007 Y144.680 E33.5278
G1 X142.207 Y144.680 E33.5366
G1 X142.307 Y144.665 E33.5410
;WIDTH:0.416
G1 X142.354 Y144.652 E33.5435
;WIDTH:0.468
G1 X142.402 Y144.640 E33.5464
G1 X142.420 Y144.618 E33.5481
G1 X142.443 Y144.591 E33.5501
G1 X142.485 Y144.533 E33.5543
;WIDTH:0.890
G1 X142.657 Y144.260 E33.5901
;WIDTH:1.080
G1 X142.712 Y144.164 E33.6050
G1 X142.729 Y144.141 E33.6089
G1 X142.679 Y144.094 E33.6181
G1 X142.643 Y144.071 E33.6239
G1 X142.607 Y144.049 E33.6296
;WIDTH:1.007
G1 X142.586 Y144.041 E33.6324
G1 X142.559 Y144.035 E33.6359
;WIDTH:0.952
G1 X142.532 Y144.030 E33.6391
G1 X142.489 Y144.018 E33.6444
;WIDTH:0.875
G1 X142.446 Y144.007 E33.6493
G1 X142.404 Y143.996 E33.6540
;WIDTH:0.786
G1 X142.371 Y143.990 E33.6573
G1 X142.316 Y143.981 E33.6628
;WIDTH:0.703
G1 X142.261 Y143.972 E33.6677
G1 X142.207 Y143.963 E33.6725
;WIDTH:0.617
G1 X142.170 Y143.958 E33.6753
G1 X142.149 Y143.937 E33.6776
;WIDTH:0.565
G1 X142.128 Y143.916 E33.6797
G1 X142.107 Y143.896 E33.6818
;WIDTH:0.482
G1 X142.072 Y143.865 E33.6846
G1 X142.037 Y143.834 E33.6874
;WIDTH:0.403
G1 X142.003 Y143.804 E33.6897
G1 X141.982 Y143.785 E33.6911
G1 F2400 E33.1911
G0 F9000 X140.807 Y144.705
;WIDTH:0.299
G1 F1500 E33.6911
G1 F1200 X140.644 Y144.705 E33.6972
G1 X140.533 Y144.578 E33.7035
G1 F2400 E33.2035
G0 F9000 X140.588 Y144.458
;WIDTH:0.233
G1 F1500 E33.7035
G1 F1200 X140.455 Y144.388 E33.7078
G1 X140.443 Y144.373 E33.7084
G1 X140.357 Y144.355 E33.7109
G1 X140.298 Y144.355 E33.7126
G1 X140.186 Y144.308 E33.7162
G1 F2400 E33.2162
G0 F9000 X141.998 Y144.683
G0 X144.096 Y145.431
;WIDTH:0.178
G1 F1500 E33.7162
G1 F1200 X144.068 Y145.518 E33.7182
G1 X144.044 Y145.542 E33.7190
G1 X144.012 Y145.590 E33.7202
G1 X144.017 Y145.605 E33.7206
G1 X144.054 Y145.692 E33.7227
G1 F2400 E33.2227
G0 F9000 X144.054 Y145.373
;WIDTH:0.179
G1 F1500 E33.7227
G1 F1200 X144.096 Y145.291 E33.7247
G1 X144.170 Y145.223 E33.7270
G1 F2400 E33.2270
G0 F9000 X144.110 Y145.126
;WIDTH:0.175
G1 F1500 E33.7270
G1 F1200 X144.157 Y145.013 E33.7297
